Papirus/64x64/apps/GP6-icon.svg

<svg xmlns="http://www.w3.org/2000/svg" width="64" height="64" version="1">
 <path style="opacity:0.2" d="m 4.0511146,12.777461 c -0.531604,11.94629 7.7398584,36.356273 16.5853244,44.06633 7.148654,6.230447 17.562332,6.61485 29.508221,-6.964852 7.304255,-8.303462 10.167077,-15.451116 9.804674,-21.38616 C 59.623711,34.01402 56.645709,40.489069 50.14466,47.879724 38.198571,61.457826 27.786493,61.073823 20.636439,54.843776 12.256976,47.539722 4.4073172,25.265555 4.0511146,12.777461 Z"/>
 <path style="fill:#4f4f4f" d="M 50.14466,48.877924 C 38.198571,62.458026 27.786493,62.074023 20.638439,55.843976 9.9099585,46.493906 -0.01571595,12.525652 5.6437265,6.0936034 11.302169,-0.33904488 46.920036,9.4486285 54.556093,16.567882 c 7.637258,7.119453 8.161862,18.014935 -4.412433,32.310242 z"/>
 <path style="opacity:0.1;fill:#ffffff" d="M 13.050781 4.0019531 C 9.5529123 4.0544699 6.8823155 4.6865644 5.6445312 6.09375 C 4.4606543 7.4395164 3.9989351 10.041856 4.046875 13.324219 C 4.101575 10.514838 4.5832323 8.3001765 5.6445312 7.09375 C 7.0591419 5.4855379 10.343624 4.891424 14.597656 5.015625 L 14.599609 5.015625 C 27.361704 5.3884278 48.826645 12.230673 54.554688 17.570312 C 57.873307 20.661935 59.827042 24.47516 59.966797 28.962891 C 60.106583 24.038734 58.117169 19.889116 54.554688 16.570312 C 48.826645 11.230673 27.361704 4.3884278 14.599609 4.015625 L 14.597656 4.015625 C 14.065902 4.0000999 13.550477 3.9944507 13.050781 4.0019531 z"/>
 <path style="opacity:0.2" d="m 25.037109,25 c -2.830515,0 -5.045296,0.792684 -6.646484,2.380859 C 16.797523,28.961203 16,31.170416 16,34.005859 c 0,2.827612 0.797523,5.034872 2.390625,6.623047 C 19.991903,42.209336 22.206684,43 25.037109,43 26.331033,43 27.549162,42.837092 28.689453,42.511719 29.829745,42.178558 31.05386,41.689874 32,41.046875 L 32,33 l -7,0 0,2 4.992188,0 0,5.1875 c -0.541846,0.302135 -1.152726,0.526638 -1.832032,0.673828 -0.679278,0.139446 -2.050706,0.208984 -2.916015,0.208984 -2.215806,0 -4.382013,-0.592042 -5.498047,-1.777343 C 18.638144,38.107668 18,36.345476 18,34.005859 c 0,-2.347363 0.638146,-4.113527 1.746094,-5.298828 1.116034,-1.185301 3.282241,-1.779297 5.498047,-1.779297 1.123941,0 1.895239,0.186789 2.914062,0.558594 1.018823,0.371805 1.935278,0.926246 2.841797,1.66211 l 0,-2.5 C 30.102375,26.106144 29.165175,25.696858 28.097656,25.417969 27.038313,25.139081 26.21783,25 25.037109,25 Z M 36,25 l 0,18 2,0 0,-7 3.53125,0 c 2.029749,-0.01828 3.863263,-0.409779 4.898438,-1.285156 1.043261,-0.875377 1.564453,-2.168749 1.564453,-3.88086 0,-1.696619 -0.521192,-3.583607 -1.564453,-4.458984 C 45.394513,25.491877 43.561081,25 41.53125,25 L 36,25 Z m 2,2.001953 3.701172,0 c 1.369066,-0.03635 2.429705,0.278164 3.177734,0.833985 C 45.626935,28.391766 46,29.770711 46,30.791016 c 0,1.027925 -0.373065,1.819178 -1.121094,2.375 C 44.130877,33.721837 43.070958,34 41.701172,34 L 38,34 l 0,-6.996094 0,-0.002 z"/>
 <path style="fill:#ffffff" d="m 25.037109,24 c -2.830515,0 -5.045296,0.792684 -6.646484,2.380859 C 16.797523,27.961203 16,30.170416 16,33.005859 c 0,2.827612 0.797523,5.034872 2.390625,6.623047 C 19.991903,41.209336 22.206684,42 25.037109,42 26.331033,42 27.549162,41.837092 28.689453,41.511719 29.829745,41.178558 31.05386,40.689874 32,40.046875 V 32 h -7 v 2 h 4.992188 v 5.1875 c -0.541846,0.302135 -1.152726,0.526638 -1.832032,0.673828 -0.679278,0.139446 -2.050706,0.208984 -2.916015,0.208984 -2.215806,0 -4.382013,-0.592042 -5.498047,-1.777343 C 18.638144,37.107668 18,35.345476 18,33.005859 c 0,-2.347363 0.638146,-4.113527 1.746094,-5.298828 1.116034,-1.185301 3.282241,-1.779297 5.498047,-1.779297 1.123941,0 1.895239,0.186789 2.914062,0.558594 1.018823,0.371805 1.935278,0.926246 2.841797,1.66211 v -2.5 C 30.102375,25.106144 29.165175,24.696858 28.097656,24.417969 27.038313,24.139081 26.21783,24 25.037109,24 Z"/>
 <path style="fill:#f14649" d="M 36 24 L 36 42 L 38 42 L 38 35 L 41.53125 35 C 43.560999 34.98172 45.394513 34.590221 46.429688 33.714844 C 47.472949 32.839467 47.994141 31.546095 47.994141 29.833984 C 47.994141 28.137365 47.472948 26.250377 46.429688 25.375 C 45.394513 24.491877 43.561081 24 41.53125 24 L 36 24 z M 38 26.001953 L 41.701172 26.001953 C 43.070238 25.965603 44.130877 26.280117 44.878906 26.835938 C 45.626935 27.391766 46 28.770711 46 29.791016 C 46 30.818941 45.626935 31.610194 44.878906 32.166016 C 44.130877 32.721837 43.070958 33 41.701172 33 L 38 33 L 38 26.003906 L 38 26.001953 z"/>
</svg>

<svg xmlns="http://www.w3.org/2000/svg" width="64" height="64" version="1">
 <path style="opacity:0.2" d="m 4.0511146,12.777461 c -0.531604,11.94629 7.7398584,36.356273 16.5853244,44.06633 7.148654,6.230447 17.562332,6.61485 29.508221,-6.964852 7.304255,-8.303462 10.167077,-15.451116 9.804674,-21.38616 C 59.623711,34.01402 56.645709,40.489069 50.14466,47.879724 38.198571,61.457826 27.786493,61.073823 20.636439,54.843776 12.256976,47.539722 4.4073172,25.265555 4.0511146,12.777461 Z"/>
 <path style="fill:#285b1f" d="M 50.14466,48.877924 C 38.198571,62.458026 27.786493,62.074023 20.638439,55.843976 9.9099585,46.493906 -0.01571595,12.525652 5.6437265,6.0936034 11.302169,-0.33904488 46.920036,9.4486285 54.556093,16.567882 c 7.637258,7.119453 8.161862,18.014935 -4.412433,32.310242 z"/>
 <path style="opacity:0.1;fill:#ffffff" d="M 13.050781 4.0019531 C 9.5529123 4.0544699 6.8823155 4.6865644 5.6445312 6.09375 C 4.4606543 7.4395164 3.9989351 10.041856 4.046875 13.324219 C 4.101575 10.514838 4.5832323 8.3001765 5.6445312 7.09375 C 7.0591419 5.4855379 10.343624 4.891424 14.597656 5.015625 L 14.599609 5.015625 C 27.361704 5.3884278 48.826645 12.230673 54.554688 17.570312 C 57.873307 20.661935 59.827042 24.47516 59.966797 28.962891 C 60.106583 24.038734 58.117169 19.889116 54.554688 16.570312 C 48.826645 11.230673 27.361704 4.3884278 14.599609 4.015625 L 14.597656 4.015625 C 14.065902 4.0000999 13.550477 3.9944507 13.050781 4.0019531 z"/>
 <path style="opacity:0.2" d="m 25.037109,25 c -2.830515,0 -5.045296,0.792684 -6.646484,2.380859 C 16.797523,28.961203 16,31.170416 16,34.005859 c 0,2.827612 0.797523,5.034872 2.390625,6.623047 C 19.991903,42.209336 22.206684,43 25.037109,43 26.331033,43 27.549162,42.837092 28.689453,42.511719 29.829745,42.178558 31.05386,41.689874 32,41.046875 L 32,33 l -7,0 0,2 4.992188,0 0,5.1875 c -0.541846,0.302135 -1.152726,0.526638 -1.832032,0.673828 -0.679278,0.139446 -2.050706,0.208984 -2.916015,0.208984 -2.215806,0 -4.382013,-0.592042 -5.498047,-1.777343 C 18.638144,38.107668 18,36.345476 18,34.005859 c 0,-2.347363 0.638146,-4.113527 1.746094,-5.298828 1.116034,-1.185301 3.282241,-1.779297 5.498047,-1.779297 1.123941,0 1.895239,0.186789 2.914062,0.558594 1.018823,0.371805 1.935278,0.926246 2.841797,1.66211 l 0,-2.5 C 30.102375,26.106144 29.165175,25.696858 28.097656,25.417969 27.038313,25.139081 26.21783,25 25.037109,25 Z M 36,25 l 0,18 2,0 0,-7 3.53125,0 c 2.029749,-0.01828 3.863263,-0.409779 4.898438,-1.285156 1.043261,-0.875377 1.564453,-2.168749 1.564453,-3.88086 0,-1.696619 -0.521192,-3.583607 -1.564453,-4.458984 C 45.394513,25.491877 43.561081,25 41.53125,25 L 36,25 Z m 2,2.001953 3.701172,0 c 1.369066,-0.03635 2.429705,0.278164 3.177734,0.833985 C 45.626935,28.391766 46,29.770711 46,30.791016 c 0,1.027925 -0.373065,1.819178 -1.121094,2.375 C 44.130877,33.721837 43.070958,34 41.701172,34 L 38,34 l 0,-6.996094 0,-0.002 z"/>
 <path style="fill:#daff60" d="M 25.037109 24 C 22.206594 24 19.991813 24.792684 18.390625 26.380859 C 16.797523 27.961203 16 30.170416 16 33.005859 C 16 35.833471 16.797523 38.040731 18.390625 39.628906 C 19.991903 41.209336 22.206684 42 25.037109 42 C 26.331033 42 27.549162 41.837092 28.689453 41.511719 C 29.829745 41.178558 31.05386 40.689874 32 40.046875 L 32 32 L 25 32 L 25 34 L 29.992188 34 L 29.992188 39.1875 C 29.450342 39.489635 28.839462 39.714138 28.160156 39.861328 C 27.480878 40.000774 26.10945 40.070312 25.244141 40.070312 C 23.028335 40.070312 20.862128 39.47827 19.746094 38.292969 C 18.638144 37.107668 18 35.345476 18 33.005859 C 18 30.658496 18.638146 28.892332 19.746094 27.707031 C 20.862128 26.52173 23.028335 25.927734 25.244141 25.927734 C 26.368082 25.927734 27.13938 26.114523 28.158203 26.486328 C 29.177026 26.858133 30.093481 27.412574 31 28.148438 L 31 25.648438 C 30.102375 25.106144 29.165175 24.696858 28.097656 24.417969 C 27.038313 24.139081 26.21783 24 25.037109 24 z M 36 24 L 36 42 L 38 42 L 38 35 L 41.53125 35 C 43.560999 34.98172 45.394513 34.590221 46.429688 33.714844 C 47.472949 32.839467 47.994141 31.546095 47.994141 29.833984 C 47.994141 28.137365 47.472949 26.250377 46.429688 25.375 C 45.394513 24.491877 43.561081 24 41.53125 24 L 36 24 z M 38 26.001953 L 41.701172 26.001953 C 43.070238 25.965603 44.130877 26.280117 44.878906 26.835938 C 45.626935 27.391766 46 28.770711 46 29.791016 C 46 30.818941 45.626935 31.610194 44.878906 32.166016 C 44.130877 32.721837 43.070958 33 41.701172 33 L 38 33 L 38 26.003906 L 38 26.001953 z"/>
</svg>
